neru-light-classic/22x22/emotes/face-angry-symbolic.svg

<svg xmlns="http://www.w3.org/2000/svg" width="16" height="16"><path d="M8 1C4.13 1 1 4.13 1 8c0 3.86 3.13 7 7 7s7-3.14 7-7c0-3.87-3.13-7-7-7zM3.03 6.37c.04-.01.06 0 .06 0 .01.02 3.83.56 3.85.56.34.3.25.77.06 1.07H6c0 .55-.45 1-1 1s-1-.45-1-1H3s-.47-.46-.41-1c.05-.41.32-.58.44-.63zm9.88 0c.01-.02.43.08.5.63.06.54-.41 1-.41 1h-1c0 .55-.45 1-1 1s-1-.45-1-1H9c-.19-.3-.27-.77.06-1.07.02 0 3.84-.54 3.85-.56zM6.5 12h3c.28 0 .5.22.5.5 0 .27-.22.5-.5.5h-3c-.28 0-.5-.23-.5-.5 0-.28.22-.5.5-.5z" fill="#1e333d"/></svg>

<svg xmlns="http://www.w3.org/2000/svg" width="16" height="16" version="1.1">
 <path style="fill:#1e333d" d="M 8,1 C 4.13,1 1,4.13 1,8 1,11.86 4.13,15 8,15 11.87,15 15,11.86 15,8 15,4.13 11.87,1 8,1 Z M 3.03,6.37 C 3.07,6.36 3.09,6.37 3.09,6.37 3.1,6.39 6.92,6.93 6.94,6.93 7.28,7.23 7.19,7.7 7,8 H 6 C 6,8.55 5.55,9 5,9 4.45,9 4,8.55 4,8 H 3 C 3,8 2.53,7.54 2.59,7 2.64,6.59 2.91,6.42 3.03,6.37 Z M 12.91,6.37 C 12.92,6.35 13.34,6.45 13.41,7 13.47,7.54 13,8 13,8 H 12 C 12,8.55 11.55,9 11,9 10.45,9 10,8.55 10,8 H 9 C 8.81,7.7 8.73,7.23 9.06,6.93 9.08,6.93 12.9,6.39 12.91,6.37 Z M 6.5,12 H 9.5 C 9.78,12 10,12.22 10,12.5 10,12.77 9.78,13 9.5,13 H 6.5 C 6.22,13 6,12.77 6,12.5 6,12.22 6.22,12 6.5,12 Z"/>
</svg>
